frontend/css/icons/core-relief-items.svg

<?xml version="1.0" encoding="UTF-8" standalone="no"?>
<svg viewBox="0 0 32 32" version="1.1" xmlns="http://www.w3.org/2000/svg" xmlns:xlink="http://www.w3.org/1999/xlink">
    <!-- Generator: Sketch 46.1 (44463) - http://www.bohemiancoding.com/sketch -->
    <title>icons/core-relief-items</title>
    <desc>Created with Sketch.</desc>
    <defs></defs>
    <g id="Symbols" stroke="none" stroke-width="1" fill="none" fill-rule="evenodd">
        <g id="icons/core-relief-items">
            <g id="Group-8">
                <circle id="yellow-oval" fill="#FAB400" cx="16" cy="16" r="16"></circle>
                <path d="M23.6090518,8.3608 C22.6739709,7.4524 21.5361458,7 20.188204,7 L18.9262748,7 C18.7468769,8.11 17.5279541,8.974 16.0350195,8.974 C14.5420848,8.974 13.323162,8.11 13.1425353,7 L11.8879787,7 C10.5461806,7 9.39238173,7.4524 8.43641204,8.3608 C7.4792136,9.2704 7,10.3804 7,11.6908 L7,14.998 L10.2598812,14.998 L10.2598812,12.832 L11.1150932,12.832 L11.1150932,25 L20.8885931,25 L20.8885931,12.832 L21.7425763,12.832 L21.7425763,14.9152 L25,14.9152 L25,11.6908 C25,10.3804 24.5343027,9.2704 23.6090518,8.3608" id="icon" fill="#FFFFFF"></path>
            </g>
        </g>
    </g>
</svg>

<!-- Generated by IcoMoon.io -->
<svg version="1.1" xmlns="http://www.w3.org/2000/svg" viewBox="0 0 32 32">
<title>core-relief-item</title>
<path d="M16 32c-8.837 0-16-7.163-16-16s7.163-16 16-16c8.837 0 16 7.163 16 16s-7.163 16-16 16zM23.609 8.361c-0.935-0.908-2.073-1.361-3.421-1.361h-1.262c-0.179 1.11-1.398 1.974-2.891 1.974s-2.712-0.864-2.892-1.974h-1.255c-1.342 0-2.496 0.452-3.452 1.361-0.957 0.91-1.436 2.020-1.436 3.33v3.307h3.26v-2.166h0.855v12.168h9.774v-12.168h0.854v2.083h3.257v-3.224c0-1.31-0.466-2.42-1.391-3.33z"></path>
</svg>
